X:673
T:Mr. Menzies of Culdares
R:Reel
B:The Athole Collection
M:C|
L:1/8
K:D
A|FDAF BGAF|E=cGc E=CCA|FDAF BGAG|FdAd FDD:|
|:g|f/g/a da fdaf|e/=f/g =cg ecge|1 f/g/a da fdad|B/c/d Ad FDD:|2
afge fdec|dcdA FDD||

